X: 36089
T: Scattery Island
R: slide
M: 12/8
K: Dmajor
|:F2A d2f F2A d2f|e2A cBA e2A cBA|
F2A d2f F2A d2f|e2A cBA f2e d2f:|
|:a2d f2e (d3 d)ef|g2f e2d Bcd efg|
a2d f2e (d3 d)ef|ged cBA f2e d2f:|

